X:1
L:1/8
M:4/4
K:Emin
|:""^em"" B2 Bd""^am"" cBAe |""D"" deBA""G"" B3 A |""C"" cBAE""B"" ^DEFA |""^em"" GFEB""C"" ce""D""df | 
""^em"" B2 Bc""^am"" cAAe |""D"" deBA""B"" B3 A |""C"" GFEB""B"" F3 G |""^C D em"" E8 :|""C"" e3 f""D"" edBe | 
""G"" dBAB""G/B"" dBAB |""C"" G4 BcBA |""^am"" GEAG""D"" FD D2 |""^am"" efef""^bm"" edBe |""G"" dBAB""G/B"" dBAB | 
""C"" G4 BcBA |""C"" GE""D""AG""^em"" E4 |""^am"" egfd""D"" edBe |""G"" dBAB""G/B"" dBAB |""C"" G4""^am"" BcBA | 
""B"" GEAG""D"" FD D2 |""^em"" EGBA""A"" ^cABc |""^em"" AGAE""A"" ^cA A2 |""G"" GAB/^c/d""^em"" egfd |""^A E"" e8 ||
